X: 8870
T: Culloden Well
R: strathspey
M: 4/4
K: Cmajor
G<cc2e<c c>f|d>c _B>c d<ef2|G<cc2e<c c>a|1 g>f e.d e<c c>A:|2 g>f e.d e<c c2||
|:e>g g<c' a>f f>e|d>_B F>_B d>e f>d|e>g g<c' a>f f>a|g>f e.d e<c c2:|

